Papirus/22x22/panel/copy-sync6.svg

<?xml version="1.0" encoding="UTF-8" standalone="no"?>
<svg xmlns:dc="http://purl.org/dc/elements/1.1/" xmlns:cc="http://creativecommons.org/ns#" xmlns:rdf="http://www.w3.org/1999/02/22-rdf-syntax-ns#" xmlns:svg="http://www.w3.org/2000/svg" xmlns="http://www.w3.org/2000/svg" id="svg2" x="0px" y="0px" version="1.1" width="22" viewBox="0 0 22 22" height="22" xml:space="preserve" enable-background="new 0 0 24 24">
    <metadata id="metadata16">
        <rdf:RDF>
            <cc:Work rdf:about="">
                <dc:format>
                    image/svg+xml
                </dc:format>
                <dc:type rdf:resource="http://purl.org/dc/dcmitype/StillImage"/>
                <dc:title/>
            </cc:Work>
        </rdf:RDF>
    </metadata>
    <g transform="translate(-1.0000211,-1.000719)" id="g4135">
        <path id="path6" transform="translate(1.0000211,1.000719)" d="M 19.634766 2.0253906 L 14.017578 8.84375 L 16 10 L 20 2.3515625 L 19.634766 2.0253906 z M 5 6.5 L 1 10 L 5.375 9.375 L 6.3242188 15 L 9.7109375 15 L 6.5 7 L 5 6.5 z M 12 9.0292969 L 9 10 L 10 13 L 14 10 L 12 9.0292969 z M 15 10.599609 L 9.8554688 15 L 18.199219 15 L 17 12 L 15 10.599609 z M 3.8359375 16 C 3.3726209 16 3 16.372921 3 16.835938 L 3 18.164062 C 3 18.627078 3.3726209 19 3.8359375 19 L 11 19 L 11 16 L 3.8359375 16 z M 19.935547 19.333984 C 19.918547 19.379984 19.896047 19.419886 19.873047 19.462891 L 20 19.5 L 19.935547 19.333984 z " style="fill:#ffffff;fill-opacity:1;opacity:1"/>
        <path id="rect8" transform="translate(1.0000211,1.000719)" d="M 3.8359375 16 C 3.6042463 16 3.3953253 16.092956 3.2441406 16.244141 C 3.3952104 16.093033 3.6042792 16 3.8359375 16 z M 11 16 L 11 19 L 18.164062 19 C 18.627444 19 19 18.625491 19 18.162109 L 19 16.835938 C 19 16.372556 18.627444 16 18.164062 16 L 11 16 z " style="opacity:0.3;fill:#ffffff;fill-opacity:1"/>
    </g>
</svg>

<?xml version="1.0" encoding="UTF-8" standalone="no"?>
<svg id="svg2" xmlns:rdf="http://www.w3.org/1999/02/22-rdf-syntax-ns#" xmlns="http://www.w3.org/2000/svg" enable-background="new 0 0 24 24" xml:space="preserve" viewBox="0 0 22 22" width="22" version="1.1" y="0px" x="0px" xmlns:cc="http://creativecommons.org/ns#" height="22" xmlns:dc="http://purl.org/dc/elements/1.1/">
    <metadata id="metadata16">
        <rdf:RDF>
            <cc:Work rdf:about="">
                <dc:format>
                    image/svg+xml
                </dc:format>
                <dc:type rdf:resource="http://purl.org/dc/dcmitype/StillImage"/>
                <dc:title/>
            </cc:Work>
        </rdf:RDF>
    </metadata>
    <g id="g4135" fill="#fff" transform="translate(-1 -1.0007)">
        <path id="path6" d="m19.635 2.0254l-5.617 6.8184 1.982 1.1562 4-7.6484-0.365-0.3262zm-14.635 4.4746l-4 3.5 4.375-0.625 0.9492 5.625h3.3867l-3.2109-8-1.5-0.5zm7 2.5293l-3 0.9707 1 3 4-3-2-0.9707zm3 1.5707l-5.1445 4.4h8.3435l-1.199-3-2-1.4zm-11.164 5.4c-0.4633 0-0.8359 0.373-0.8359 0.836v1.328c0 0.463 0.3726 0.836 0.8359 0.836h7.1641v-3h-7.1641zm16.1 3.334c-0.017 0.046-0.04 0.086-0.063 0.129l0.127 0.037-0.064-0.166z" transform="translate(1 1.0007)"/>
        <path id="rect8" opacity=".3" d="m3.8359 16c-0.2317 0-0.4406 0.093-0.5918 0.244 0.1511-0.151 0.3602-0.244 0.5918-0.244zm7.1641 0v3h7.164c0.463 0 0.836-0.375 0.836-0.838v-1.326c0-0.463-0.373-0.836-0.836-0.836h-7.164z" transform="translate(1 1.0007)"/>
    </g>
</svg>
